svg/chevron-double-down.svg

<svg width="24" height="24" viewBox="0 0 24 24" fill="none" xmlns="http://www.w3.org/2000/svg">
<path d="M5.29289 6.29289C5.68342 5.90237 6.31658 5.90237 6.70711 6.29289L12 11.5858L17.2929 6.2929C17.6834 5.90237 18.3166 5.90237 18.7071 6.2929C19.0976 6.68342 19.0976 7.31658 18.7071 7.70711L12.7071 13.7071C12.3166 14.0976 11.6834 14.0976 11.2929 13.7071L5.29289 7.70711C4.90237 7.31658 4.90237 6.68342 5.29289 6.29289ZM5.29289 12.2929C5.68342 11.9024 6.31658 11.9024 6.70711 12.2929L12 17.5858L17.2929 12.2929C17.6834 11.9024 18.3166 11.9024 18.7071 12.2929C19.0976 12.6834 19.0976 13.3166 18.7071 13.7071L12.7071 19.7071C12.3166 20.0976 11.6834 20.0976 11.2929 19.7071L5.29289 13.7071C4.90237 13.3166 4.90237 12.6834 5.29289 12.2929Z" fill="#0D0D0D"/>
</svg>

<svg width="24" height="24" fill="none" xmlns="http://www.w3.org/2000/svg"><path d="M5.293 6.293a1 1 0 011.414 0L12 11.586l5.293-5.293a1 1 0 111.414 1.414l-6 6a1 1 0 01-1.414 0l-6-6a1 1 0 010-1.414zm0 6a1 1 0 011.414 0L12 17.586l5.293-5.293a1 1 0 011.414 1.414l-6 6a1 1 0 01-1.414 0l-6-6a1 1 0 010-1.414z" fill="#0D0D0D"/></svg>
